X:1
T: Will You Come Home With Me?
C:
R:Jig
Q:180
K:G
M:6/8
L:1/16
|:G2|F2G2A2 A2F2D2|B2A2G2 A2F2D2|A2B2A2 A2B2G2|A2B2A2 A2B2G2|
F2G2A2 A2F2D2|B2A2G2 A2F2D2|D2G2G2 G2A2F2|D2G2G2 G4G2|
B6 c2B2c2|d2e2d2 c2A2G2|A2B2A2 A2B2G2|A2B2A2 A2B2G2|
B6 c2B2c2|d2e2d2 c2A2F2|D2G2G2 G2A2F2|1D2G2G2 G4A2:|2D2G2G2 G4||
